; generated by PrusaSlicer 2.2.0+ on 2020-09-30 at 16:25:59 UTC

; 

; external perimeters extrusion width = 0.50mm
; perimeters extrusion width = 0.50mm
; infill extrusion width = 0.50mm
; solid infill extrusion width = 0.50mm
; top infill extrusion width = 0.50mm
; support material extrusion width = 0.45mm

M107
; ***************START printer gcode********************
G21 ; set units to millimeters
G90 ; use absolute coordinates
M83 ; use relative distances for extrusion
G28  ; home
G1 X-50 Y98 F9000 ; Go to the middle of the front
G1 Z0.05 ; close to the bed
M190 S50 ;preheat the bed
M104 S230; preheat the extruder 
M190 S70 ; set bed temp & wait
M109 S230 ; set extruder temp & wait
G92 E0 ; reset extruder
G1 X50 E10 F200 ; make a thick line to prime extruder
G1 E-1.0 F1800 ; retract a little
G1 Z0.5 ; lift Z
; ***************STARTprinter gcode********************
G21 ; set units to millimeters
G90 ; use absolute coordinates
M83 ; use relative distances for extrusion
; **************Filament gcode******************
; M104 S230 ; set extruder temp
; **************Filament gcode******************
G1 E-2.00000 F2100.00000
G1 Z0.350 F6000.000
G1 X16.498 Y-10.661
G1 E2.00000 F2100.00000
G1 F2700.000
G1 X16.498 Y-41.272 E0.64400
G1 X16.518 Y-41.715 E0.00934
G1 X16.572 Y-42.130 E0.00881
G1 X16.663 Y-42.539 E0.00881
G1 X16.789 Y-42.938 E0.00881
G1 X16.944 Y-43.314 E0.00856
G1 X17.258 Y-43.885 E0.01371
G1 X17.484 Y-44.208 E0.00830
G1 X17.906 Y-44.689 E0.01346
G1 X18.387 Y-45.111 E0.01346
G1 X18.720 Y-45.344 E0.00856
G1 X19.072 Y-45.548 E0.00856
G1 X19.669 Y-45.810 E0.01371
G1 X20.056 Y-45.932 E0.00856
G1 X20.453 Y-46.020 E0.00856
G1 X21.102 Y-46.091 E0.01372
G1 X26.836 Y-46.097 E0.12064
G1 X27.229 Y-46.123 E0.00827
G1 X27.762 Y-46.241 E0.01149
G1 X28.278 Y-46.455 E0.01175
G1 X28.749 Y-46.755 E0.01175
G1 X29.161 Y-47.132 E0.01175
G1 X29.501 Y-47.575 E0.01175
G1 X29.759 Y-48.071 E0.01175
G1 X29.927 Y-48.603 E0.01175
G1 X29.996 Y-49.133 E0.01124
G1 X29.998 Y-62.248 E0.27591
G1 X30.014 Y-62.423 E0.00370
G1 X30.072 Y-62.624 E0.00440
G1 X30.152 Y-62.762 E0.00337
G1 X30.370 Y-62.970 E0.00633
G1 X30.627 Y-63.071 E0.00581
G1 X30.859 Y-63.097 E0.00492
G1 X34.821 Y-63.095 E0.08334
G1 X35.071 Y-63.045 E0.00537
G1 X35.196 Y-62.986 E0.00292
G1 X35.320 Y-62.900 E0.00317
G1 X35.470 Y-62.724 E0.00485
G1 X35.572 Y-62.481 E0.00556
G1 X35.599 Y-62.236 E0.00519
G1 X35.601 Y-54.133 E0.17047
G1 X35.669 Y-53.615 E0.01099
G1 X35.793 Y-53.190 E0.00932
G1 X36.019 Y-52.706 E0.01124
G1 X36.271 Y-52.327 E0.00957
G1 X36.729 Y-51.849 E0.01392
G1 X37.206 Y-51.515 E0.01226
G1 X37.823 Y-51.244 E0.01418
G1 X38.368 Y-51.123 E0.01175
G1 X38.761 Y-51.097 E0.00828
G1 X43.274 Y-51.097 E0.09493
G1 X43.274 Y-45.496 E0.11783
G1 X21.108 Y-45.494 E0.46632
G1 X20.600 Y-45.440 E0.01076
G1 X20.240 Y-45.362 E0.00775
G1 X19.888 Y-45.254 E0.00775
G1 X19.396 Y-45.044 E0.01125
G1 X18.809 Y-44.683 E0.01451
G1 X18.400 Y-44.338 E0.01125
G1 X18.129 Y-44.055 E0.00824
G1 X17.719 Y-43.501 E0.01451
G1 X17.398 Y-42.864 E0.01500
G1 X17.189 Y-42.182 E0.01500
G1 X17.101 Y-41.498 E0.01451
G1 X17.099 Y-15.248 E0.55227
G1 X17.158 Y-14.567 E0.01438
G1 X17.348 Y-13.859 E0.01542
G1 X17.653 Y-13.206 E0.01516
G1 X17.971 Y-12.729 E0.01207
G1 X18.450 Y-12.206 E0.01491
G1 X18.898 Y-11.847 E0.01207
G1 X19.522 Y-11.487 E0.01516
G1 X20.210 Y-11.236 E0.01542
G1 X20.932 Y-11.109 E0.01541
G1 X43.274 Y-11.097 E0.47004
G1 X43.274 Y-10.661 E0.00919
G1 X16.558 Y-10.661 E0.56205
G1 X16.216 Y-10.260 F6000.000
G1 F2700.000
G1 X16.148 Y-10.331 E0.00207
G1 X16.096 Y-10.448 E0.00269
G1 X16.073 Y-10.612 E0.00348
G1 X16.073 Y-41.281 E0.64522
G1 X16.094 Y-41.752 E0.00992
G1 X16.153 Y-42.204 E0.00959
G1 X16.252 Y-42.649 E0.00959
G1 X16.389 Y-43.084 E0.00959
G1 X16.561 Y-43.498 E0.00943
G1 X16.896 Y-44.110 E0.01469
G1 X17.149 Y-44.471 E0.00928
G1 X17.605 Y-44.990 E0.01453
G1 X18.124 Y-45.446 E0.01453
G1 X18.491 Y-45.703 E0.00943
G1 X18.880 Y-45.927 E0.00943
G1 X19.519 Y-46.208 E0.01469
G1 X19.946 Y-46.343 E0.00943
G1 X20.384 Y-46.440 E0.00943
G1 X21.078 Y-46.516 E0.01469
G1 X26.822 Y-46.522 E0.12084
G1 X27.168 Y-46.545 E0.00730
G1 X27.634 Y-46.648 E0.01003
G1 X28.081 Y-46.833 E0.01019
G1 X28.489 Y-47.093 E0.01019
G1 X28.846 Y-47.420 E0.01019
G1 X29.141 Y-47.804 E0.01019
G1 X29.365 Y-48.234 E0.01019
G1 X29.510 Y-48.696 E0.01019
G1 X29.571 Y-49.161 E0.00987
G1 X29.573 Y-62.266 E0.27572
G1 X29.594 Y-62.502 E0.00497
G1 X29.675 Y-62.778 E0.00606
G1 X29.819 Y-63.029 E0.00610
G1 X30.024 Y-63.243 E0.00622
G1 X30.268 Y-63.398 E0.00609
G1 X30.534 Y-63.489 E0.00592
G1 X30.836 Y-63.522 E0.00639
G1 X34.844 Y-63.520 E0.08431
G1 X35.004 Y-63.503 E0.00338
G1 X35.217 Y-63.445 E0.00464
G1 X35.410 Y-63.355 E0.00448
G1 X35.590 Y-63.229 E0.00464
G1 X35.695 Y-63.129 E0.00306
G1 X35.830 Y-62.954 E0.00464
G1 X35.928 Y-62.765 E0.00448
G1 X35.990 Y-62.568 E0.00433
G1 X36.024 Y-62.259 E0.00655
G1 X36.026 Y-54.161 E0.17037
G1 X36.086 Y-53.703 E0.00972
G1 X36.192 Y-53.340 E0.00795
G1 X36.390 Y-52.915 E0.00987
G1 X36.604 Y-52.594 E0.00811
G1 X37.007 Y-52.173 E0.01226
G1 X37.416 Y-51.887 E0.01050
G1 X37.956 Y-51.649 E0.01242
G1 X38.429 Y-51.545 E0.01018
G1 X38.775 Y-51.522 E0.00731
G1 X43.699 Y-51.522 E0.10358
G1 X43.699 Y-45.072 E0.13570
G1 X21.131 Y-45.069 E0.47478
G1 X20.667 Y-45.019 E0.00981
G1 X20.347 Y-44.950 E0.00689
G1 X20.034 Y-44.854 E0.00689
G1 X19.592 Y-44.666 E0.01011
G1 X19.058 Y-44.337 E0.01318
G1 X18.691 Y-44.028 E0.01011
G1 X18.454 Y-43.781 E0.00720
G1 X18.082 Y-43.277 E0.01318
G1 X17.794 Y-42.705 E0.01348
G1 X17.606 Y-42.093 E0.01348
G1 X17.526 Y-41.471 E0.01318
G1 X17.524 Y-15.266 E0.55131
G1 X17.578 Y-14.641 E0.01321
G1 X17.749 Y-14.005 E0.01385
G1 X18.024 Y-13.415 E0.01370
G1 X18.307 Y-12.992 E0.01070
G1 X18.741 Y-12.517 E0.01354
G1 X19.138 Y-12.199 E0.01070
G1 X19.702 Y-11.873 E0.01370
G1 X20.321 Y-11.648 E0.01385
G1 X20.969 Y-11.534 E0.01385
G1 X43.699 Y-11.522 E0.47819
G1 X43.699 Y-10.236 E0.02706
G1 X16.356 Y-10.236 E0.57524
G1 X16.275 Y-10.250 E0.00173
G1 X15.978 Y-9.913 F6000.000
G1 F2700.000
G1 X15.852 Y-10.019 E0.00347
G1 X15.781 Y-10.113 E0.00248
G1 X15.684 Y-10.330 E0.00499
G1 X15.648 Y-10.583 E0.00537
G1 X15.648 Y-41.290 E0.64603
G1 X15.670 Y-41.789 E0.01051
G1 X15.735 Y-42.278 E0.01037
G1 X15.841 Y-42.759 E0.01037
G1 X15.989 Y-43.229 E0.01037
G1 X16.177 Y-43.682 E0.01031
G1 X16.535 Y-44.335 E0.01566
G1 X16.815 Y-44.734 E0.01025
G1 X17.304 Y-45.291 E0.01560
G1 X17.861 Y-45.781 E0.01560
G1 X18.263 Y-46.062 E0.01031
G1 X18.687 Y-46.307 E0.01031
G1 X19.369 Y-46.607 E0.01566
G1 X19.836 Y-46.754 E0.01031
G1 X20.315 Y-46.860 E0.01031
G1 X21.055 Y-46.941 E0.01566
G1 X26.808 Y-46.947 E0.12103
G1 X27.108 Y-46.966 E0.00633
G1 X27.505 Y-47.055 E0.00856
G1 X27.884 Y-47.211 E0.00862
G1 X28.230 Y-47.432 E0.00862
G1 X28.532 Y-47.708 E0.00862
G1 X28.781 Y-48.034 E0.00862
G1 X28.971 Y-48.397 E0.00862
G1 X29.094 Y-48.788 E0.00862
G1 X29.147 Y-49.189 E0.00851
G1 X29.148 Y-62.285 E0.27552
G1 X29.174 Y-62.580 E0.00624
G1 X29.277 Y-62.933 E0.00772
G1 X29.370 Y-63.121 E0.00442
G1 X29.487 Y-63.296 E0.00442
G1 X29.743 Y-63.563 E0.00778
G1 X29.912 Y-63.688 E0.00442
G1 X30.096 Y-63.789 E0.00441
G1 X30.442 Y-63.906 E0.00768
G1 X30.813 Y-63.947 E0.00786
G1 X34.867 Y-63.945 E0.08529
G1 X35.082 Y-63.921 E0.00455
G1 X35.362 Y-63.846 E0.00610
G1 X35.623 Y-63.725 E0.00605
G1 X35.861 Y-63.558 E0.00611
G1 X36.013 Y-63.413 E0.00442
G1 X36.189 Y-63.183 E0.00611
G1 X36.322 Y-62.928 E0.00605
G1 X36.408 Y-62.656 E0.00599
G1 X36.448 Y-62.282 E0.00792
G1 X36.450 Y-54.189 E0.17027
G1 X36.503 Y-53.791 E0.00845
G1 X36.590 Y-53.490 E0.00658
G1 X36.761 Y-53.124 E0.00851
G1 X36.937 Y-52.861 E0.00664
G1 X37.285 Y-52.497 E0.01060
G1 X37.625 Y-52.259 E0.00874
G1 X38.089 Y-52.055 E0.01066
G1 X38.489 Y-51.966 E0.00862
G1 X38.789 Y-51.947 E0.00633
G1 X44.123 Y-51.947 E0.11222
G1 X44.123 Y-44.647 E0.15358
G1 X21.154 Y-44.644 E0.48325
G1 X20.735 Y-44.599 E0.00886
G1 X20.454 Y-44.539 E0.00604
G1 X20.180 Y-44.455 E0.00604
G1 X19.788 Y-44.287 E0.00897
G1 X19.308 Y-43.992 E0.01185
G1 X18.982 Y-43.717 E0.00897
G1 X18.780 Y-43.506 E0.00615
G1 X18.445 Y-43.054 E0.01185
G1 X18.189 Y-42.546 E0.01196
G1 X18.023 Y-42.003 E0.01196
G1 X17.951 Y-41.444 E0.01184
G1 X17.948 Y-15.285 E0.55035
G1 X17.998 Y-14.715 E0.01204
G1 X18.150 Y-14.151 E0.01229
G1 X18.395 Y-13.624 E0.01223
G1 X18.642 Y-13.255 E0.00934
G1 X19.033 Y-12.828 E0.01217
G1 X19.379 Y-12.550 E0.00934
G1 X19.882 Y-12.260 E0.01223
G1 X20.431 Y-12.060 E0.01229
G1 X21.006 Y-11.958 E0.01229
G1 X44.123 Y-11.947 E0.48635
G1 X44.123 Y-9.811 E0.04493
G1 X16.320 Y-9.811 E0.58494
G1 X16.105 Y-9.848 E0.00460
G1 X16.029 Y-9.882 E0.00175
G1 X15.984 Y-10.078 F6000.000
G1 F4800.000
G1 X15.852 Y-10.019 E-0.09308
G1 X15.781 Y-10.113 E-0.04898
G1 X15.684 Y-10.330 E-0.09866
G1 X15.648 Y-10.583 E-0.10616
G1 X15.648 Y-14.320 E-1.55312
G1 E-0.10000 F2100.00000
G1 X17.490 Y-10.788 F6000.000
G1 E2.00000 F2100.00000
G1 F1800.000
G1 X16.817 Y-11.461 E0.02013
G1 X16.817 Y-12.065 E0.01278
G1 X17.903 Y-10.980 E0.03249
G1 X18.507 Y-10.980 E0.01278
G1 X16.817 Y-12.670 E0.05056
G1 X16.817 Y-13.274 E0.01278
G1 X19.111 Y-10.980 E0.06864
G1 X19.715 Y-10.980 E0.01278
G1 X19.562 Y-11.133 E0.00459
G1 X19.387 Y-11.197 E0.00395
G1 X18.717 Y-11.583 E0.01635
G1 X18.232 Y-11.973 E0.01317
G1 X17.720 Y-12.531 E0.01602
G1 X17.374 Y-13.049 E0.01317
G1 X17.137 Y-13.558 E0.01189
G1 X16.817 Y-13.878 E0.00956
G1 X16.817 Y-14.482 E0.01278
G1 X17.134 Y-14.165 E0.00949
G1 F4800.000
G1 X16.817 Y-14.482 E-0.18637
G1 X16.817 Y-13.878 E-0.25114
G1 X17.137 Y-13.558 E-0.18786
G1 X17.374 Y-13.049 E-0.23366
G1 X17.720 Y-12.531 E-0.25875
G1 X18.232 Y-11.973 E-0.31479
G1 X18.717 Y-11.583 E-0.25875
G1 X19.152 Y-11.332 E-0.20868
G1 E-0.10000 F2100.00000
G1 X16.875 Y-14.124 F6000.000
G1 X16.798 Y-15.286
G1 X16.798 Y-41.280
G1 X17.053 Y-42.786
G1 X17.565 Y-43.807
G1 X18.259 Y-44.614
G1 X19.113 Y-45.230
G1 X20.154 Y-45.649
G1 X21.102 Y-45.792
G1 X27.889 Y-45.882
G1 X27.974 Y-45.622
G1 E2.00000 F2100.00000
G1 F1800.000
G1 X27.696 Y-45.900 E0.00832
G1 X27.858 Y-45.936 E0.00351
G1 X28.146 Y-46.055 E0.00658
G1 X28.387 Y-45.813 E0.00723
G1 X28.992 Y-45.813 E0.01278
G1 X28.553 Y-46.252 E0.01313
G1 X28.922 Y-46.487 E0.00926
G1 X29.596 Y-45.813 E0.02016
G1 X30.200 Y-45.813 E0.01278
G1 X29.240 Y-46.773 E0.02871
G1 X29.397 Y-46.916 E0.00448
G1 X29.529 Y-47.089 E0.00460
G1 X30.804 Y-45.814 E0.03815
G1 X31.408 Y-45.814 E0.01278
G1 X29.787 Y-47.435 E0.04851
G1 X29.994 Y-47.832 E0.00948
G1 X32.012 Y-45.814 E0.06039
G1 X32.617 Y-45.814 E0.01278
G1 X30.157 Y-48.274 E0.07360
G1 X30.239 Y-48.534 E0.00578
G1 X30.269 Y-48.765 E0.00493
G1 X33.221 Y-45.814 E0.08831
G1 X33.825 Y-45.814 E0.01278
G1 X30.315 Y-49.324 E0.10501
G1 X30.315 Y-49.928 E0.01278
G1 X34.429 Y-45.814 E0.12309
G1 X35.033 Y-45.814 E0.01278
G1 X30.315 Y-50.532 E0.14116
G1 X30.315 Y-51.136 E0.01278
G1 X35.637 Y-45.814 E0.15924
G1 X36.242 Y-45.814 E0.01278
G1 X30.315 Y-51.740 E0.17731
G1 X30.315 Y-52.345 E0.01278
G1 X36.846 Y-45.814 E0.19538
G1 X37.450 Y-45.814 E0.01278
G1 X30.316 Y-52.949 E0.21346
G1 X30.316 Y-53.553 E0.01278
G1 X38.054 Y-45.814 E0.23153
G1 X38.658 Y-45.814 E0.01278
G1 X30.316 Y-54.157 E0.24960
G1 X30.316 Y-54.761 E0.01278
G1 X39.262 Y-45.815 E0.26768
G1 X39.867 Y-45.815 E0.01278
G1 X30.316 Y-55.365 E0.28575
G1 X30.316 Y-55.970 E0.01278
G1 X40.471 Y-45.815 E0.30382
G1 X41.075 Y-45.815 E0.01278
G1 X30.316 Y-56.574 E0.32190
G1 X30.316 Y-57.178 E0.01278
G1 X41.870 Y-45.624 E0.34569
G1 F4800.000
G1 X38.638 Y-48.856 E-1.90000
G1 E-0.10000 F2100.00000
G1 X42.567 Y-50.969 F6000.000
G1 E2.00000 F2100.00000
G1 F1800.000
G1 X42.955 Y-50.581 E0.01161
G1 X42.955 Y-49.977 E0.01278
G1 X42.154 Y-50.778 E0.02397
G1 X41.550 Y-50.778 E0.01278
G1 X42.955 Y-49.373 E0.04205
G1 X42.955 Y-48.769 E0.01278
G1 X40.945 Y-50.778 E0.06013
G1 X40.341 Y-50.778 E0.01278
G1 X42.955 Y-48.164 E0.07820
G1 X42.955 Y-47.560 E0.01278
G1 X39.737 Y-50.778 E0.09628
G1 X39.133 Y-50.778 E0.01278
G1 X42.955 Y-46.956 E0.11436
G1 X42.955 Y-46.352 E0.01278
G1 X38.513 Y-50.794 E0.13291
G1 X38.323 Y-50.806 E0.00402
G1 X37.774 Y-50.928 E0.01189
G1 X42.888 Y-45.815 E0.15298
G1 X42.283 Y-45.815 E0.01278
G1 X30.316 Y-57.782 E0.35805
G1 X30.316 Y-58.386 E0.01278
G1 X35.440 Y-53.263 E0.15329
G1 X35.356 Y-53.549 E0.00632
G1 X35.295 Y-54.011 E0.00986
G1 X30.316 Y-58.990 E0.14896
G1 X30.317 Y-59.594 E0.01278
G1 X35.282 Y-54.629 E0.14856
G1 X35.282 Y-55.233 E0.01279
G1 X30.317 Y-60.199 E0.14855
G1 X30.317 Y-60.803 E0.01278
G1 X35.282 Y-55.838 E0.14855
G1 X35.281 Y-56.442 E0.01279
G1 X30.317 Y-61.407 E0.14854
G1 X30.317 Y-62.011 E0.01278
G1 X35.281 Y-57.047 E0.14853
G1 X35.281 Y-57.651 E0.01279
G1 X30.392 Y-62.540 E0.14628
G1 X30.545 Y-62.696 E0.00462
G1 X30.704 Y-62.759 E0.00363
G1 X30.770 Y-62.767 E0.00140
G1 X35.281 Y-58.255 E0.13497
G1 X35.281 Y-58.860 E0.01279
G1 X31.363 Y-62.778 E0.11723
G1 X31.967 Y-62.778 E0.01279
G1 X35.281 Y-59.464 E0.09914
G1 X35.281 Y-60.069 E0.01279
G1 X32.572 Y-62.777 E0.08105
G1 X33.176 Y-62.777 E0.01279
G1 X35.280 Y-60.673 E0.06296
G1 X35.280 Y-61.277 E0.01279
G1 X33.781 Y-62.777 E0.04487
G1 X34.385 Y-62.777 E0.01279
G1 X35.471 Y-61.691 E0.03250
G1 F4800.000
G1 X34.385 Y-62.777 E-0.63843
G1 X33.781 Y-62.777 E-0.25125
G1 X35.280 Y-61.277 E-0.88143
G1 X35.280 Y-60.967 E-0.12889
G1 E-0.10000 F2100.00000
G1 X-3.618 Y-42.870 F6000.000
G1 E2.00000 F2100.00000
G1 F1350.000
G1 X-3.577 Y-42.622 E0.00531
G1 X-3.907 Y-42.576 E0.00700
G1 X-3.937 Y-42.821 E0.00519
G1 X-3.678 Y-42.861 E0.00551
G1 F4800.000
G1 X-3.577 Y-42.622 E-0.10800
G1 X-3.907 Y-42.576 E-0.13834
G1 X-3.937 Y-42.821 E-0.10255
G1 X-3.678 Y-42.861 E-0.10889
G1 E-1.54223 F2100.00000
G1 X-2.461 Y-43.410 F6000.000
G1 E2.00000 F2100.00000
G1 F1350.000
G1 X-2.219 Y-43.622 E0.00677
G1 X-2.050 Y-43.442 E0.00519
G1 X-2.297 Y-43.219 E0.00700
G1 X-2.422 Y-43.365 E0.00404
G1 X-2.096 Y-43.757 F6000.000
G1 F1350.000
G1 X-1.905 Y-44.016 E0.00677
G1 X-1.700 Y-43.870 E0.00531
G1 X-1.902 Y-43.604 E0.00700
G1 X-2.048 Y-43.720 E0.00393
G1 F4800.000
G1 X-1.905 Y-44.016 E-0.13692
G1 X-1.700 Y-43.870 E-0.10481
G1 X-1.902 Y-43.604 E-0.13833
G1 X-2.048 Y-43.720 E-0.07761
G1 E-1.54234 F2100.00000
G1 X-1.575 Y-44.697 F6000.000
G1 E2.00000 F2100.00000
G1 F1350.000
G1 X-1.504 Y-44.987 E0.00630
G1 X-1.258 Y-44.930 E0.00531
G1 X-1.341 Y-44.628 E0.00658
G1 X-1.517 Y-44.680 E0.00387
G1 F4800.000
G1 X-1.504 Y-44.987 E-0.12795
G1 X-1.258 Y-44.930 E-0.10481
G1 X-1.341 Y-44.628 E-0.13003
G1 X-1.517 Y-44.680 E-0.07649
G1 E-1.56072 F2100.00000
G1 X-2.794 Y-47.844 F6000.000
G1 E2.00000 F2100.00000
G1 F1350.000
G1 X-3.062 Y-47.977 E0.00630
G1 X-2.953 Y-48.204 E0.00531
G1 X-2.676 Y-48.058 E0.00658
G1 X-2.765 Y-47.897 E0.00387
G1 X-2.927 Y-47.437 F6000.000
G1 F1350.000
G1 X-2.601 Y-47.186 E0.00866
G1 X-2.283 Y-46.824 E0.01013
G1 X-2.077 Y-46.467 E0.00866
G1 X-1.923 Y-46.012 E0.01013
G1 X-1.870 Y-45.611 E0.00851
G1 X-1.888 Y-45.207 E0.00851
G1 X-2.002 Y-44.739 E0.01013
G1 X-2.176 Y-44.366 E0.00866
G1 X-2.465 Y-43.972 E0.01028
G1 X-2.832 Y-43.649 E0.01028
G1 X-3.183 Y-43.447 E0.00851
G1 X-3.563 Y-43.309 E0.00851
G1 X-4.038 Y-43.236 E0.01013
G1 X-4.450 Y-43.254 E0.00866
G1 X-4.917 Y-43.368 E0.01013
G1 X-5.291 Y-43.542 E0.00866
G1 X-5.679 Y-43.827 E0.01013
G1 X-5.957 Y-44.130 E0.00866
G1 X-6.211 Y-44.548 E0.01028
G1 X-6.368 Y-45.011 E0.01028
G1 X-6.421 Y-45.412 E0.00851
G1 X-6.403 Y-45.816 E0.00851
G1 X-6.287 Y-46.291 E0.01028
G1 X-6.071 Y-46.729 E0.01028
G1 X-5.820 Y-47.056 E0.00866
G1 X-5.458 Y-47.373 E0.01013
G1 X-5.101 Y-47.579 E0.00866
G1 X-4.646 Y-47.734 E0.01013
G1 X-4.237 Y-47.788 E0.00867
G1 X-3.757 Y-47.756 E0.01013
G1 X-3.359 Y-47.649 E0.00866
G1 X-2.981 Y-47.463 E0.00886
G1 X-3.153 Y-47.074 F6000.000
G1 F1350.000
G1 X-2.893 Y-46.874 E0.00690
G1 X-2.630 Y-46.575 E0.00837
G1 X-2.466 Y-46.291 E0.00690
G1 X-2.338 Y-45.915 E0.00837
G1 X-2.296 Y-45.592 E0.00685
G1 X-2.310 Y-45.267 E0.00685
G1 X-2.405 Y-44.881 E0.00837
G1 X-2.543 Y-44.583 E0.00690
G1 X-2.780 Y-44.260 E0.00842
G1 X-3.081 Y-43.996 E0.00842
G1 X-3.363 Y-43.834 E0.00685
G1 X-3.669 Y-43.722 E0.00685
G1 X-4.062 Y-43.662 E0.00837
G1 X-4.390 Y-43.676 E0.00690
