; generated by PrusaSlicer 2.2.0+ on 2020-10-01 at 13:26:53 UTC

; 

; external perimeters extrusion width = 0.50mm
; perimeters extrusion width = 0.50mm
; infill extrusion width = 0.50mm
; solid infill extrusion width = 0.50mm
; top infill extrusion width = 0.50mm
; support material extrusion width = 0.45mm

M107
; ***************START printer gcode********************
G21 ; set units to millimeters
G90 ; use absolute coordinates
M83 ; use relative distances for extrusion
G28  ; home
G1 X-50 Y98 F9000 ; Go to the middle of the front
G1 Z0.05 ; close to the bed
M190 S50 ;preheat the bed
M104 S230; preheat the extruder 
M190 S70 ; set bed temp & wait
M109 S230 ; set extruder temp & wait
G92 E0 ; reset extruder
G1 X50 E10 F200 ; make a thick line to prime extruder
G1 E-1.0 F1800 ; retract a little
G1 Z0.5 ; lift Z
; ***************STARTprinter gcode********************
G21 ; set units to millimeters
G90 ; use absolute coordinates
M83 ; use relative distances for extrusion
; **************Filament gcode******************
; M104 S230 ; set extruder temp
; **************Filament gcode******************
G1 E-2.00000 F2100.00000
G1 Z0.350 F6000.000
G1 X11.451 Y-11.220
G1 E2.00000 F2100.00000
G1 F2700.000
G1 X-10.701 Y-11.217 E0.46603
G1 X-11.144 Y-11.177 E0.00936
G1 X-11.659 Y-11.075 E0.01105
G1 X-12.048 Y-10.956 E0.00856
G1 X-12.460 Y-10.787 E0.00936
G1 X-12.923 Y-10.539 E0.01105
G1 X-13.257 Y-10.313 E0.00848
G1 X-13.572 Y-10.058 E0.00853
G1 X-13.973 Y-9.658 E0.01192
G1 X-14.227 Y-9.342 E0.00852
G1 X-14.448 Y-9.016 E0.00828
G1 X-14.640 Y-8.673 E0.00828
G1 X-14.802 Y-8.314 E0.00828
G1 X-14.933 Y-7.943 E0.00828
G1 X-15.032 Y-7.562 E0.00828
G1 X-15.098 Y-7.174 E0.00828
G1 X-15.132 Y-6.782 E0.00828
G1 X-15.135 Y19.450 E0.55190
G1 X-15.100 Y19.992 E0.01141
G1 X-15.029 Y20.406 E0.00885
G1 X-14.854 Y21.011 E0.01325
G1 X-14.558 Y21.657 E0.01495
G1 X-14.341 Y22.010 E0.00872
G1 X-14.100 Y22.336 E0.00853
G1 X-13.709 Y22.762 E0.01217
G1 X-13.266 Y23.135 E0.01217
G1 X-12.931 Y23.362 E0.00853
G1 X-12.577 Y23.560 E0.00852
G1 X-12.265 Y23.693 E0.00713
G1 X-12.307 Y23.897 E0.00438
G1 X-15.865 Y23.897 E0.07487
G1 X-15.865 Y-6.561 E0.64078
G1 X-15.845 Y-7.041 E0.01009
G1 X-15.787 Y-7.492 E0.00958
G1 X-15.691 Y-7.937 E0.00958
G1 X-15.561 Y-8.361 E0.00933
G1 X-15.284 Y-9.011 E0.01485
G1 X-15.073 Y-9.388 E0.00909
G1 X-14.666 Y-9.964 E0.01485
G1 X-14.373 Y-10.297 E0.00933
G1 X-14.052 Y-10.604 E0.00933
G1 X-13.494 Y-11.036 E0.01485
G1 X-13.126 Y-11.262 E0.00909
G1 X-12.489 Y-11.567 E0.01485
G1 X-12.071 Y-11.715 E0.00933
G1 X-11.641 Y-11.826 E0.00933
G1 X-10.943 Y-11.931 E0.01485
G1 X-10.476 Y-11.951 E0.00985
G1 X-5.952 Y-11.951 E0.09517
G1 X-5.385 Y-11.999 E0.01198
G1 X-4.788 Y-12.155 E0.01298
G1 X-4.225 Y-12.409 E0.01299
G1 X-3.714 Y-12.754 E0.01299
G1 X-3.268 Y-13.181 E0.01298
G1 X-2.901 Y-13.678 E0.01299
G1 X-2.623 Y-14.229 E0.01298
G1 X-2.443 Y-14.819 E0.01299
G1 X-2.367 Y-15.408 E0.01249
G1 X-2.365 Y-27.537 E0.25517
G1 X-2.324 Y-27.746 E0.00449
G1 X-2.232 Y-27.857 E0.00303
G1 X-2.117 Y-27.930 E0.00287
G1 X-1.950 Y-27.951 E0.00353
G1 X1.971 Y-27.950 E0.08250
G1 X2.123 Y-27.925 E0.00325
G1 X2.276 Y-27.818 E0.00393
G1 X2.339 Y-27.709 E0.00264
G1 X2.365 Y-27.537 E0.00367
G1 X2.367 Y-19.423 E0.17070
G1 X2.401 Y-19.065 E0.00756
G1 X2.487 Y-18.642 E0.00908
G1 X2.640 Y-18.194 E0.00996
G1 X2.846 Y-17.774 E0.00984
G1 X3.048 Y-17.462 E0.00782
G1 X3.312 Y-17.136 E0.00883
G1 X3.552 Y-16.896 E0.00713
G1 X3.904 Y-16.614 E0.00950
G1 X4.192 Y-16.430 E0.00718
G1 X4.601 Y-16.229 E0.00959
G1 X4.951 Y-16.104 E0.00782
G1 X5.382 Y-16.001 E0.00933
G1 X5.951 Y-15.951 E0.01201
G1 X11.451 Y-15.951 E0.11571
G1 X11.451 Y-11.280 E0.09825
G1 X11.876 Y-10.796 F6000.000
G1 F2700.000
G1 X-10.681 Y-10.793 E0.47456
G1 X-11.083 Y-10.755 E0.00849
G1 X-11.555 Y-10.662 E0.01013
G1 X-11.905 Y-10.555 E0.00769
G1 X-12.278 Y-10.402 E0.00849
G1 X-12.703 Y-10.174 E0.01013
G1 X-13.004 Y-9.971 E0.00764
G1 X-13.287 Y-9.742 E0.00767
G1 X-13.656 Y-9.373 E0.01097
G1 X-13.885 Y-9.089 E0.00767
G1 X-14.086 Y-8.793 E0.00752
G1 X-14.260 Y-8.481 E0.00752
G1 X-14.407 Y-8.156 E0.00752
G1 X-14.526 Y-7.819 E0.00752
G1 X-14.616 Y-7.473 E0.00752
G1 X-14.677 Y-7.120 E0.00752
G1 X-14.707 Y-6.764 E0.00752
G1 X-14.710 Y19.437 E0.55123
G1 X-14.678 Y19.942 E0.01065
G1 X-14.615 Y20.311 E0.00787
G1 X-14.454 Y20.863 E0.01210
G1 X-14.183 Y21.457 E0.01374
G1 X-13.989 Y21.772 E0.00779
G1 X-13.772 Y22.065 E0.00767
G1 X-13.414 Y22.455 E0.01113
G1 X-13.010 Y22.796 E0.01113
G1 X-12.708 Y23.000 E0.00767
G1 X-12.389 Y23.178 E0.00767
G1 X-11.910 Y23.382 E0.01097
G1 X-11.561 Y23.489 E0.00767
G1 X-11.212 Y23.565 E0.00752
G1 X-10.857 Y23.610 E0.00752
G1 X-10.515 Y23.624 E0.00719
G1 X11.866 Y23.625 E0.47087
G1 X11.874 Y24.321 E0.01464
G1 X-16.290 Y24.322 E0.59252
G1 X-16.290 Y-6.570 E0.64991
G1 X-16.268 Y-7.077 E0.01066
G1 X-16.206 Y-7.564 E0.01034
G1 X-16.103 Y-8.044 E0.01034
G1 X-15.961 Y-8.507 E0.01019
G1 X-15.666 Y-9.198 E0.01580
G1 X-15.433 Y-9.615 E0.01004
G1 X-15.000 Y-10.228 E0.01580
G1 X-14.680 Y-10.591 E0.01019
G1 X-14.330 Y-10.927 E0.01019
G1 X-13.736 Y-11.386 E0.01580
G1 X-13.330 Y-11.636 E0.01004
G1 X-12.652 Y-11.960 E0.01580
G1 X-12.195 Y-12.121 E0.01019
G1 X-11.727 Y-12.243 E0.01019
G1 X-10.984 Y-12.354 E0.01580
G1 X-10.485 Y-12.376 E0.01051
G1 X-5.970 Y-12.376 E0.09498
G1 X-5.457 Y-12.419 E0.01084
G1 X-4.930 Y-12.557 E0.01146
G1 X-4.433 Y-12.781 E0.01146
G1 X-3.982 Y-13.086 E0.01146
G1 X-3.588 Y-13.463 E0.01146
G1 X-3.264 Y-13.901 E0.01146
G1 X-3.019 Y-14.388 E0.01146
G1 X-2.860 Y-14.909 E0.01146
G1 X-2.792 Y-15.435 E0.01116
G1 X-2.790 Y-27.555 E0.25499
G1 X-2.776 Y-27.715 E0.00338
G1 X-2.722 Y-27.901 E0.00407
G1 X-2.635 Y-28.052 E0.00367
G1 X-2.502 Y-28.189 E0.00402
G1 X-2.237 Y-28.338 E0.00639
G1 X-1.969 Y-28.376 E0.00570
G1 X1.991 Y-28.375 E0.08332
G1 X2.269 Y-28.325 E0.00594
G1 X2.394 Y-28.267 E0.00289
G1 X2.603 Y-28.092 E0.00575
G1 X2.740 Y-27.855 E0.00575
G1 X2.775 Y-27.722 E0.00289
G1 X2.790 Y-27.555 E0.00353
G1 X2.792 Y-19.443 E0.17066
G1 X2.822 Y-19.128 E0.00666
G1 X2.898 Y-18.753 E0.00804
G1 X3.033 Y-18.357 E0.00881
G1 X3.217 Y-17.984 E0.00873
G1 X3.393 Y-17.712 E0.00682
G1 X3.629 Y-17.421 E0.00788
G1 X3.836 Y-17.213 E0.00617
G1 X4.152 Y-16.960 E0.00853
G1 X4.401 Y-16.801 E0.00620
G1 X4.767 Y-16.621 E0.00858
G1 X5.072 Y-16.512 E0.00682
G1 X5.451 Y-16.421 E0.00819
G1 X5.969 Y-16.376 E0.01095
G1 X11.876 Y-16.376 E0.12426
G1 X11.876 Y-10.856 E0.11613
G1 X12.207 Y-10.412 F6000.000
G1 F2700.000
G1 X12.065 Y-10.371 E0.00310
G1 X-10.662 Y-10.368 E0.47813
G1 X-11.022 Y-10.334 E0.00761
G1 X-11.452 Y-10.250 E0.00922
G1 X-11.762 Y-10.155 E0.00682
G1 X-12.097 Y-10.017 E0.00762
G1 X-12.483 Y-9.810 E0.00922
G1 X-12.751 Y-9.629 E0.00681
G1 X-13.003 Y-9.426 E0.00682
G1 X-13.340 Y-9.089 E0.01002
G1 X-13.543 Y-8.837 E0.00682
G1 X-13.723 Y-8.570 E0.00676
G1 X-13.880 Y-8.290 E0.00676
G1 X-14.012 Y-7.997 E0.00676
G1 X-14.119 Y-7.694 E0.00676
G1 X-14.200 Y-7.383 E0.00676
G1 X-14.255 Y-7.066 E0.00676
G1 X-14.282 Y-6.746 E0.00676
G1 X-14.285 Y19.423 E0.55057
G1 X-14.255 Y19.893 E0.00989
G1 X-14.200 Y20.215 E0.00689
G1 X-14.055 Y20.715 E0.01094
G1 X-13.807 Y21.256 E0.01254
G1 X-13.636 Y21.534 E0.00686
G1 X-13.444 Y21.795 E0.00682
G1 X-13.119 Y22.147 E0.01008
G1 X-12.753 Y22.456 E0.01008
G1 X-12.485 Y22.638 E0.00682
G1 X-12.202 Y22.796 E0.00682
G1 X-11.764 Y22.983 E0.01002
G1 X-11.454 Y23.078 E0.00682
G1 X-11.140 Y23.145 E0.00676
G1 X-10.821 Y23.186 E0.00676
G1 X-10.506 Y23.200 E0.00663
G1 X12.086 Y23.201 E0.47531
G1 X12.169 Y23.220 E0.00180
G1 X12.229 Y23.258 E0.00150
G1 X12.288 Y23.358 E0.00244
G1 X12.301 Y24.510 E0.02422
G1 X12.255 Y24.658 E0.00327
G1 X12.199 Y24.710 E0.00160
G1 X12.067 Y24.746 E0.00288
G1 X-16.477 Y24.746 E0.60052
G1 X-16.629 Y24.700 E0.00335
G1 X-16.702 Y24.595 E0.00268
G1 X-16.715 Y24.511 E0.00179
G1 X-16.715 Y-6.579 E0.65409
G1 X-16.692 Y-7.113 E0.01123
G1 X-16.625 Y-7.636 E0.01110
G1 X-16.514 Y-8.152 E0.01110
G1 X-16.360 Y-8.653 E0.01104
G1 X-16.048 Y-9.386 E0.01675
G1 X-15.793 Y-9.842 E0.01099
G1 X-15.333 Y-10.492 E0.01675
G1 X-14.987 Y-10.886 E0.01104
G1 X-14.608 Y-11.249 E0.01104
G1 X-13.978 Y-11.736 E0.01675
G1 X-13.533 Y-12.010 E0.01099
G1 X-12.815 Y-12.353 E0.01675
G1 X-12.320 Y-12.528 E0.01104
G1 X-11.812 Y-12.660 E0.01104
G1 X-11.024 Y-12.778 E0.01675
G1 X-10.494 Y-12.800 E0.01118
G1 X-5.988 Y-12.800 E0.09478
G1 X-5.529 Y-12.840 E0.00970
G1 X-5.072 Y-12.959 E0.00994
G1 X-4.641 Y-13.153 E0.00994
G1 X-4.250 Y-13.418 E0.00994
G1 X-3.909 Y-13.745 E0.00994
G1 X-3.628 Y-14.125 E0.00994
G1 X-3.415 Y-14.547 E0.00994
G1 X-3.276 Y-14.999 E0.00994
G1 X-3.217 Y-15.462 E0.00983
G1 X-3.215 Y-27.574 E0.25481
G1 X-3.196 Y-27.794 E0.00465
G1 X-3.119 Y-28.055 E0.00573
G1 X-2.967 Y-28.320 E0.00642
G1 X-2.772 Y-28.521 E0.00590
G1 X-2.506 Y-28.689 E0.00661
G1 X-2.365 Y-28.744 E0.00318
G1 X-2.213 Y-28.781 E0.00329
G1 X-1.988 Y-28.801 E0.00477
G1 X2.011 Y-28.800 E0.08414
G1 X2.210 Y-28.781 E0.00419
G1 X2.415 Y-28.726 E0.00447
G1 X2.607 Y-28.637 E0.00445
G1 X2.780 Y-28.515 E0.00445
G1 X2.930 Y-28.366 E0.00445
G1 X3.051 Y-28.193 E0.00445
G1 X3.141 Y-28.001 E0.00445
G1 X3.195 Y-27.796 E0.00445
G1 X3.215 Y-27.574 E0.00471
G1 X3.217 Y-19.463 E0.17063
G1 X3.243 Y-19.190 E0.00577
G1 X3.309 Y-18.864 E0.00700
G1 X3.426 Y-18.520 E0.00766
G1 X3.587 Y-18.194 E0.00763
G1 X3.737 Y-17.962 E0.00583
G1 X3.945 Y-17.705 E0.00694
G1 X4.120 Y-17.530 E0.00522
G1 X4.400 Y-17.305 E0.00755
G1 X4.610 Y-17.172 E0.00523
G1 X4.932 Y-17.013 E0.00757
G1 X5.193 Y-16.920 E0.00583
G1 X5.519 Y-16.842 E0.00706
G1 X5.988 Y-16.800 E0.00990
G1 X12.061 Y-16.800 E0.12776
G1 X12.166 Y-16.780 E0.00225
G1 X12.220 Y-16.747 E0.00133
G1 X12.280 Y-16.662 E0.00220
G1 X12.301 Y-16.559 E0.00221
G1 X12.301 Y-10.607 E0.12522
G1 X12.288 Y-10.522 E0.00181
G1 X12.250 Y-10.453 E0.00165
G1 X12.076 Y-10.480 F6000.000
G1 F4800.000
G1 X12.065 Y-10.371 E-0.08421
G1 X7.696 Y-10.370 E-1.81579
G1 E-0.10000 F2100.00000
G1 X8.018 Y-11.347 F6000.000
G1 E2.00000 F2100.00000
G1 F1800.000
G1 X-2.048 Y-21.413 E0.30116
G1 X-2.048 Y-20.809 E0.01278
G1 X7.223 Y-11.539 E0.27737
G1 X6.619 Y-11.538 E0.01278
G1 X-2.048 Y-20.205 E0.25930
G1 X-2.048 Y-19.601 E0.01278
G1 X6.015 Y-11.538 E0.24122
G1 X5.410 Y-11.538 E0.01278
G1 X-2.048 Y-18.997 E0.22315
G1 X-2.048 Y-18.392 E0.01278
G1 X4.806 Y-11.538 E0.20508
G1 X4.202 Y-11.538 E0.01278
G1 X-2.048 Y-17.788 E0.18700
G1 X-2.048 Y-17.184 E0.01278
G1 X3.598 Y-11.538 E0.16893
G1 X2.994 Y-11.538 E0.01278
G1 X-2.048 Y-16.580 E0.15086
G1 X-2.049 Y-15.976 E0.01278
G1 X2.389 Y-11.538 E0.13278
G1 X1.785 Y-11.538 E0.01278
G1 X-2.050 Y-15.374 E0.11476
G1 X-2.119 Y-14.838 E0.01143
G1 X1.181 Y-11.538 E0.09874
G1 X0.577 Y-11.538 E0.01278
G1 X-2.249 Y-14.364 E0.08455
G1 X-2.327 Y-14.110 E0.00562
G1 X-2.418 Y-13.928 E0.00429
G1 X-0.027 Y-11.538 E0.07153
G1 X-0.631 Y-11.537 E0.01278
G1 X-2.621 Y-13.527 E0.05952
G1 X-2.875 Y-13.177 E0.00915
G1 X-1.236 Y-11.537 E0.04906
G1 X-1.840 Y-11.537 E0.01278
G1 X-3.153 Y-12.851 E0.03929
G1 X-3.462 Y-12.555 E0.00904
G1 X-2.444 Y-11.537 E0.03045
G1 X-3.048 Y-11.537 E0.01278
G1 X-3.813 Y-12.302 E0.02290
G1 X-4.069 Y-12.130 E0.00653
G1 X-4.190 Y-12.075 E0.00281
G1 X-3.652 Y-11.537 E0.01609
G1 X-4.256 Y-11.537 E0.01278
G1 X-4.606 Y-11.887 E0.01047
G1 X-5.074 Y-11.751 E0.01031
G1 X-4.861 Y-11.537 E0.00640
G1 X-5.465 Y-11.537 E0.01278
G1 X-5.590 Y-11.662 E0.00374
G1 X-6.164 Y-11.632 E0.01217
G1 X-6.069 Y-11.537 E0.00285
G1 X-6.673 Y-11.537 E0.01278
G1 X-6.769 Y-11.632 E0.00285
G1 X-7.373 Y-11.632 E0.01278
G1 X-7.277 Y-11.537 E0.00286
G1 X-7.881 Y-11.536 E0.01278
G1 X-7.977 Y-11.632 E0.00286
G1 X-8.581 Y-11.632 E0.01278
G1 X-8.486 Y-11.536 E0.00286
G1 X-9.090 Y-11.536 E0.01278
G1 X-9.186 Y-11.632 E0.00286
G1 X-9.790 Y-11.632 E0.01278
G1 X-9.694 Y-11.536 E0.00287
G1 X-10.298 Y-11.536 E0.01278
G1 X-10.394 Y-11.632 E0.00287
G1 X-10.469 Y-11.632 E0.00158
G1 X-10.971 Y-11.604 E0.01064
G1 X-10.887 Y-11.520 E0.00252
G1 X-11.189 Y-11.492 E0.00643
G1 X-11.418 Y-11.447 E0.00493
G1 X-11.496 Y-11.526 E0.00235
G1 X-11.577 Y-11.514 E0.00173
G1 X-11.983 Y-11.408 E0.00886
G1 X-11.907 Y-11.332 E0.00226
G1 X-12.354 Y-11.175 E0.01002
G1 X-12.424 Y-11.245 E0.00209
G1 X-12.833 Y-11.049 E0.00959
G1 X-12.767 Y-10.984 E0.00196
G1 X-13.154 Y-10.767 E0.00939
G1 X-13.219 Y-10.831 E0.00193
G1 X-13.312 Y-10.773 E0.00233
G1 X-13.568 Y-10.576 E0.00683
G1 X-13.510 Y-10.518 E0.00173
G1 X-13.839 Y-10.242 E0.00907
G1 X-13.903 Y-10.306 E0.00191
G1 X-14.142 Y-10.077 E0.00703
G1 X-14.205 Y-10.005 E0.00202
G1 X-14.141 Y-9.940 E0.00193
G1 X-14.418 Y-9.613 E0.00907
G1 X-14.480 Y-9.675 E0.00185
G1 X-14.730 Y-9.321 E0.00917
G1 X-14.668 Y-9.259 E0.00186
G1 X-14.890 Y-8.877 E0.00935
G1 X-14.957 Y-8.943 E0.00198
G1 X-14.998 Y-8.870 E0.00178
G1 X-15.144 Y-8.527 E0.00790
G1 X-15.083 Y-8.466 E0.00183
G1 X-15.242 Y-8.020 E0.01000
G1 X-15.311 Y-8.089 E0.00207
G1 X-15.382 Y-7.857 E0.00514
G1 X-15.436 Y-7.610 E0.00535
G1 X-15.360 Y-7.534 E0.00226
G1 X-15.433 Y-7.003 E0.01135
G1 X-15.517 Y-7.087 E0.00253
G1 X-15.546 Y-6.554 E0.01129
G1 X-15.546 Y-6.512 E0.00090
G1 X-15.450 Y-6.416 E0.00287
G1 X-15.451 Y-5.812 E0.01278
G1 X-15.546 Y-5.908 E0.00287
G1 X-15.546 Y-5.303 E0.01278
G1 X-15.451 Y-5.208 E0.00287
G1 X-15.451 Y-4.603 E0.01278
G1 X-15.546 Y-4.699 E0.00286
G1 X-15.546 Y-4.095 E0.01278
G1 X-15.451 Y-3.999 E0.00286
G1 X-15.451 Y-3.395 E0.01278
G1 X-15.546 Y-3.491 E0.00286
G1 X-15.546 Y-2.886 E0.01278
G1 X-15.451 Y-2.791 E0.00286
G1 X-15.451 Y-2.187 E0.01278
G1 X-15.546 Y-2.282 E0.00286
G1 X-15.546 Y-1.678 E0.01278
G1 X-15.451 Y-1.583 E0.00285
G1 X-15.451 Y-0.978 E0.01278
G1 X-15.546 Y-1.074 E0.00285
G1 X-15.546 Y-0.469 E0.01278
G1 X-15.451 Y-0.374 E0.00285
G1 X-15.451 Y0.230 E0.01278
G1 X-15.546 Y0.135 E0.00285
G1 X-15.546 Y0.739 E0.01278
G1 X-15.451 Y0.834 E0.00285
G1 X-15.451 Y1.438 E0.01278
G1 X-15.546 Y1.343 E0.00284
G1 X-15.546 Y1.948 E0.01278
G1 X-15.452 Y2.043 E0.00284
G1 X-15.452 Y2.647 E0.01278
G1 X-15.546 Y2.552 E0.00284
G1 X-15.546 Y3.156 E0.01278
G1 X-15.452 Y3.251 E0.00284
G1 X-15.452 Y3.855 E0.01278
G1 X-15.546 Y3.760 E0.00284
G1 X-15.546 Y4.365 E0.01278
G1 X-15.452 Y4.459 E0.00283
G1 X-15.452 Y5.063 E0.01278
G1 X-15.546 Y4.969 E0.00283
G1 X-15.547 Y5.573 E0.01278
G1 X-15.452 Y5.668 E0.00283
G1 X-15.452 Y6.272 E0.01278
G1 X-15.547 Y6.177 E0.00283
G1 X-15.547 Y6.782 E0.01278
G1 X-15.452 Y6.876 E0.00283
G1 X-15.452 Y7.480 E0.01278
G1 X-15.547 Y7.386 E0.00282
G1 X-15.547 Y7.990 E0.01278
G1 X-15.452 Y8.084 E0.00282
G1 X-15.452 Y8.689 E0.01278
G1 X-15.547 Y8.594 E0.00282
G1 X-15.547 Y9.199 E0.01278
G1 X-15.452 Y9.293 E0.00282
G1 X-15.452 Y9.897 E0.01278
G1 X-15.547 Y9.803 E0.00282
G1 X-15.547 Y10.407 E0.01278
G1 X-15.453 Y10.501 E0.00281
G1 X-15.453 Y11.105 E0.01278
G1 X-15.547 Y11.011 E0.00281
G1 X-15.547 Y11.616 E0.01278
G1 X-15.453 Y11.710 E0.00281
G1 X-15.453 Y12.314 E0.01278
G1 X-15.547 Y12.220 E0.00281
G1 X-15.547 Y12.824 E0.01278
G1 X-15.453 Y12.918 E0.00280
G1 X-15.453 Y13.522 E0.01278
G1 X-15.547 Y13.428 E0.00280
G1 X-15.547 Y14.033 E0.01278
G1 X-15.453 Y14.126 E0.00280
G1 X-15.453 Y14.730 E0.01278
G1 X-15.547 Y14.637 E0.00280
G1 X-15.547 Y15.241 E0.01278
G1 X-15.453 Y15.335 E0.00280
G1 X-15.453 Y15.939 E0.01278
G1 X-15.547 Y15.845 E0.00279
G1 X-15.547 Y16.450 E0.01278
G1 X-15.453 Y16.543 E0.00279
G1 X-15.453 Y17.147 E0.01278
G1 X-15.547 Y17.054 E0.00279
G1 X-15.547 Y17.658 E0.01278
G1 X-15.453 Y17.751 E0.00279
G1 X-15.453 Y18.356 E0.01278
G1 X-15.547 Y18.262 E0.00279
G1 X-15.547 Y18.867 E0.01278
G1 X-15.454 Y18.960 E0.00278
G1 X-15.447 Y19.571 E0.01293
G1 X-15.547 Y19.471 E0.00299
G1 X-15.547 Y20.075 E0.01278
G1 X-15.381 Y20.241 E0.00496
G1 X-15.340 Y20.478 E0.00508
G1 X-15.174 Y21.053 E0.01266
G1 X-15.547 Y20.679 E0.01116
G1 X-15.547 Y21.284 E0.01278
G1 X-13.252 Y23.578 E0.06864
G1 X-13.857 Y23.578 E0.01278
G1 X-15.547 Y21.888 E0.05056
G1 X-15.547 Y22.492 E0.01278
G1 X-14.461 Y23.578 E0.03249
G1 X-15.065 Y23.578 E0.01278
G1 X-15.738 Y22.905 E0.02013
G1 F4800.000
G1 X-15.065 Y23.578 E-0.39541
G1 X-14.461 Y23.578 E-0.25114
G1 X-15.547 Y22.492 E-0.63819
G1 X-15.547 Y21.888 E-0.25114
G1 X-14.927 Y22.507 E-0.36411
G1 E-0.10000 F2100.00000
